X: 2
T:Barney Brallaghan's Slip Jig
M:9/8
L:1/8
R:Slip Jig
K:D
F2A ABA ABA|F2A ABA d2f|F2A ABA ABA|B2B e2d cBA|!
F2A ABA ABA|F2A ABA d2f|F2A ABA ABA|B2B e2d cBA|]!
f2a f2a f2d|f2a f2a gfe|f2a f2a f2d|g2f e2d cBA|!
f2a f2a f2d|f2a f2a gfe|f2a f2a f2d|g2f e2d cBA|]!
f3 a3 d3|g2f e2d cBA|f2d e2c d2B|A2B A2G FED|!
f3 a3 d3|g2f e2d cBA|fga efg d2B|AFA dAG FED|]!
